X: 3
T: Greasy Coat
M: C|
L: 1/8
R: reel
K: Ador
AB | "Am"c2AA "G"GGAA | "Am"cAG2 A2AB | c2A2 "G"GGAG | "G"EDEG "Am"A2AB ||
w: 1.*I don't_ drink_ and_ | I_ don't smoke and_ | I don't wear_ no_ | grea_sy_ coat.
w:    **I don't_ smoke_ and_ I_ don't chew and_ I don't go_ with_ girls_ that_ do.
w: 2.*I don't_ kiss_ and_ I_ don't tell and_ those that do_ are_ going_ to_ hell.
w:**I don't_ cuss_ and_ I_ don't lie and_ I'll go~to heav_en_ when_ I_ die.
%
cAGA cAdA | "Am(C)"e6 d2 |\
"Am"c2A2 "G"GGAG | "G"EDEG "Am"A2 :: zG |\
"Am"ABcd eefe | "G"fg2g- gAcB |
"Am"ABcd efge | "D"ga2a- a2cB ||\
"Am"ABcd e2fe | "G" g2ag eAdA |\
"Am"c2AD "G"G2AG | "Am"EA3 A2 :|

